dist/assets/info.svg

<?xml version="1.0" encoding="UTF-8"?>
<svg width="40px" height="40px" viewBox="0 0 40 40" version="1.1" xmlns="http://www.w3.org/2000/svg" xmlns:xlink="http://www.w3.org/1999/xlink">
    <!-- Generator: Sketch 41.2 (35397) - http://www.bohemiancoding.com/sketch -->
    <title>info</title>
    <desc>Created with Sketch.</desc>
    <defs></defs>
    <g id="Symbols" stroke="none" stroke-width="1" fill="none" fill-rule="evenodd">
        <g id="footer" transform="translate(-540.000000, -182.000000)" fill="#00A5FF">
            <g id="Group-24">
                <g transform="translate(540.000000, 182.000000)">
                    <g id="info">
                        <path d="M20,0 C8.97153846,0 0,8.97153846 0,20 C0,31.0284615 8.97153846,40 20,40 C31.0284615,40 40,31.0284615 40,20 C40,8.97153846 31.0284615,0 20,0 Z M20,38.4615385 C9.82076923,38.4615385 1.53846154,30.1792308 1.53846154,20 C1.53846154,9.82076923 9.82076923,1.53846154 20,1.53846154 C30.1792308,1.53846154 38.4615385,9.82076923 38.4615385,20 C38.4615385,30.1792308 30.1792308,38.4615385 20,38.4615385 Z" id="Shape"></path>
                        <path d="M20,28.4615385 C19.5746154,28.4615385 19.2307692,28.8053846 19.2307692,29.2307692 L19.2307692,30.7692308 C19.2307692,31.1946154 19.5746154,31.5384615 20,31.5384615 C20.4253846,31.5384615 20.7692308,31.1946154 20.7692308,30.7692308 L20.7692308,29.2307692 C20.7692308,28.8053846 20.4253846,28.4615385 20,28.4615385 Z" id="Shape"></path>
                        <path d="M20.0869231,6.92384615 C20.0576923,6.92384615 20.0284615,6.92307692 19.9984615,6.92307692 C18.3707692,6.92307692 16.84,7.55 15.6792308,8.69538462 C14.4976923,9.86076923 13.8461538,11.4169231 13.8461538,13.0769231 C13.8461538,13.5023077 14.19,13.8461538 14.6153846,13.8461538 C15.0407692,13.8461538 15.3846154,13.5023077 15.3846154,13.0769231 C15.3846154,11.8323077 15.8730769,10.6646154 16.7592308,9.79076923 C17.6461538,8.91615385 18.8269231,8.43307692 20.0661538,8.46230769 C22.4976923,8.49615385 24.5807692,10.5792308 24.6146154,13.0107692 C24.6369231,14.6138462 23.8461538,16.0892308 22.4984615,16.9584615 C20.4523077,18.2784615 19.2307692,20.6107692 19.2307692,23.1984615 L19.2307692,25.3846154 C19.2307692,25.81 19.5746154,26.1538462 20,26.1538462 C20.4253846,26.1538462 20.7692308,25.81 20.7692308,25.3846154 L20.7692308,23.1984615 C20.7692308,21.1661538 21.7507692,19.2715385 23.3323077,18.2507692 C25.1284615,17.0923077 26.1830769,15.1253846 26.1530769,12.9892308 C26.1069231,9.69153846 23.3853846,6.97 20.0869231,6.92384615 Z" id="Shape"></path>
                    </g>
                </g>
            </g>
        </g>
    </g>
</svg>

<svg xmlns="http://www.w3.org/2000/svg" width="40" height="40" fill="#00a5ff" fill-rule="evenodd"><path d="M20 0C8.972 0 0 8.972 0 20s8.972 20 20 20 20-8.972 20-20S31.028 0 20 0zm0 38.462C9.82 38.462 1.538 30.18 1.538 20S9.82 1.538 20 1.538 38.462 9.82 38.462 20 30.18 38.462 20 38.462zm0-10a.77.77 0 0 0-.769.769v1.538a.77.77 0 0 0 .769.769.77.77 0 0 0 .769-.769v-1.54a.77.77 0 0 0-.769-.769zm.087-21.538c-.03 0-.058-.001-.088-.001a6.11 6.11 0 0 0-4.32 1.772 6.11 6.11 0 0 0-1.833 4.382.77.77 0 0 0 .769.769.77.77 0 0 0 .769-.769 4.58 4.58 0 0 1 1.375-3.286c.887-.874 2.068-1.358 3.307-1.328 2.432.034 4.515 2.117 4.548 4.548.022 1.603-.768 3.078-2.116 3.948-2.046 1.32-3.268 3.652-3.268 6.24v2.186a.77.77 0 0 0 .769.769.77.77 0 0 0 .769-.769V23.2c0-2.032.982-3.927 2.563-4.948a6.12 6.12 0 0 0 2.82-5.262 6.2 6.2 0 0 0-6.066-6.065z"/></svg>
